www/assets/icons/scoreboard.svg

<svg xmlns="http://www.w3.org/2000/svg" width="24" height="24" viewBox="0 0 24 24" fill='currentColor'><path d="M17.5 14.5H16v-3h1.5zM20 5h-3V3h-2v2H9V3H7v2H4c-1.1 0-2 .9-2 2v12c0 1.1.9 2 2 2h16c1.1 0 2-.9 2-2V7c0-1.1-.9-2-2-2M9.5 12.5c0 .55-.45 1-1 1h-2v1h3V16H5v-2.5c0-.55.45-1 1-1h2v-1H5V10h3.5c.55 0 1 .45 1 1zm3.25 6.5h-1.5v-1.5h1.5zm0-3.5h-1.5V14h1.5zm0-3.5h-1.5v-1.5h1.5zm0-3.5h-1.5V7h1.5zM19 15c0 .55-.45 1-1 1h-2.5c-.55 0-1-.45-1-1v-4c0-.55.45-1 1-1H18c.55 0 1 .45 1 1z"/></svg>

<svg width="24" height="24" viewBox="0 0 24 24" xmlns="http://www.w3.org/2000/svg" fill='currentColor'><path d="M17.5 14.5H16V11.5H17.5V14.5ZM20 5H17V3H15V5H9V3H7V5H4C2.9 5 2 5.9 2 7V19C2 20.1 2.9 21 4 21H20C21.1 21 22 20.1 22 19V7C22 5.9 21.1 5 20 5ZM9.5 12.5C9.5 13.05 9.05 13.5 8.5 13.5H6.5V14.5H9.5V16H5V13.5C5 12.95 5.45 12.5 6 12.5H8V11.5H5V10H8.5C9.05 10 9.5 10.45 9.5 11V12.5ZM12.75 19H11.25V17.5H12.75V19ZM12.75 15.5H11.25V14H12.75V15.5ZM12.75 12H11.25V10.5H12.75V12ZM12.75 8.5H11.25V7H12.75V8.5ZM19 15C19 15.55 18.55 16 18 16H15.5C14.95 16 14.5 15.55 14.5 15V11C14.5 10.45 14.95 10 15.5 10H18C18.55 10 19 10.45 19 11V15Z"/></svg>
